X: 1108
T: Hüseynî Seyir
C: Rauf Yektâ
O: Turkey
F: http://compmusic.upf.edu/node/140
N: huseyni--seyir--semai--1--rauf_yekta
N: makam= huseyni
N: form= seyir
N: usul= semai = 3/4
M: 3/4
L: 1/16
K: C _2/4B ^3/4f  
Q: 1/4=120
%%MIDI tuningsystem comma53
A8 A4  | e8 e4  | =f8 d4  | e8 z4  | c8 d4  | \
w:   |   |   |   |   | 
e4 c8  | d4 B8  | c4 A8  | A8 A4  | e8 e4  | =f8 d4  | 
w:   |   |   |   |   |   | 
e8 z4  | d8 d4  | g4 f4 g4  | a8 f4  | g4 e8  | \
w:   |   |   |   |   | 
z4 e4 f4  | g4 a8  | a4 g4 =f4  | e4 d8  | 
w:   |   |   |   | 
z4 c4 d4  | e4 =f4 e4  | d4 c4 B4  | c8 z4  | \
w:   |   |   |   | 
d8 e4  | f4 g4 a4  | a4 g4 =f4  | e4 d8  | 
w:   |   |   |   | 
z4 c4 d4  | e4 c8  | B8 G4  | A8 z4  | |


